X: 18709
T: I'se The Bye
R: jig
M: 6/8
K: Gmajor
B2B B2B|A2F D2D|B2B B2B|Lc3 L[d3F3]|
B2B B2B|A A F D2D|D2F A2F|LG3 LG3||
B2B B2B|[A2F2D2]F D3|[B2G2D2] B B2B|c2c [d3F3]|
[B2G2D2]B B B B|[A2F2D2]F D2D|D2F A2F|G3 L[G3B,3]||

